X: 4342
M: 2/4
L: 1/8
K: A
[|\
E3c | BAz2 |\
E3c | BA zc |\
eBBB | dFFF |\
cBAB | A2zc/d/ |\
g/f/e/d/ c/d/F/G/ | Ac2B- |\


